proprietary/odm/etc/Custom_LUT_hlg.cube
LUT_3D_SIZE 9
0 0 0
0.0664712 0 0.00391007
0.13783 0 0.00782014
0.210166 0 0.0127077
0.284457 0 0.0166178
0.378299 0 0.0224829
0.521017 0 0.0312805
0.733138 0 0.0439883
1 0 0.0625611
0 0.0635386 0
0.0654936 0.0635386 0
0.138807 0.0596285 0
0.212121 0.0498534 0.0058651
0.285435 0.0146628 0.0127077
0.379277 0 0.0195503
0.521994 0 0.0293255
0.734115 0 0.0430108
1 0 0.0615836
0 0.132942 0
0.0342131 0.132942 0
0.134897 0.131965 0
0.212121 0.129032 0
0.28739 0.124145 0
0.381232 0.113392 0
0.523949 0.0762463 0.0215054
0.73607 0 0.0381232
1 0 0.058651
0 0.203324 0
0 0.203324 0
0.117302 0.202346 0
0.206256 0.201369 0
0.285435 0.199413 0
0.382209 0.194526 0
0.525904 0.181818 0
0.738025 0.138807 0.028348
1 0 0.0527859
0 0.274682 0
0 0.274682 0
0.0703812 0.273705 0
0.191593 0.273705 0
0.278592 0.272727 0
0.379277 0.269795 0
0.525904 0.262952 0
0.73998 0.241447 0
1 0.170088 0.0430108
0 0.364614 0
0 0.364614 0
0 0.364614 0
0.152493 0.364614 0
0.26002 0.363636 0
0.370479 0.362659 0
0.523949 0.358749 0
0.740958 0.346041 0
1 0.31085 0.00293255
0 0.502444 0
0 0.502444 0
0 0.502444 0
0 0.502444 0
0.200391 0.502444 0
0.341153 0.501466 0
0.511241 0.499511 0
0.737048 0.493646 0
1 0.475073 0
0 0.707722 0
0 0.707722 0
0 0.707722 0
0 0.706745 0
0 0.706745 0
0.238514 0.706745 0
0.465298 0.705767 0
0.718475 0.702835 0
1 0.694037 0
0 1 0
0 1 0
0 1 0
0 1 0
0 1 0
0 1 0
0.300098 1 0
0.651026 1 0
1 1 0
0 0 0.0527859
0.0654936 0 0.0596285
0.13783 0 0.0645161
0.210166 0 0.0684262
0.284457 0 0.0723363
0.378299 0 0.0762463
0.521017 0 0.0811339
0.733138 0 0.0889541
1 0 0.101662
0 0.0645161 0.0625611
0.0635386 0.0635386 0.0635386
0.138807 0.0596285 0.0664712
0.211144 0.0488759 0.0694037
0.285435 0.0117302 0.0723363
0.379277 0 0.0762463
0.521994 0 0.0811339
0.734115 0 0.0889541
1 0 0.101662
0 0.132942 0.0664712
0.0293255 0.132942 0.0664712
0.13392 0.131965 0.0684262
0.212121 0.129032 0.0703812
0.28739 0.124145 0.0723363
0.381232 0.113392 0.0752688
0.523949 0.0762463 0.0801564
0.73607 0 0.086999
1 0 0.0997067
0 0.203324 0.0664712
0 0.203324 0.0664712
0.116325 0.202346 0.0674487
0.205279 0.201369 0.0694037
0.285435 0.199413 0.0703812
0.381232 0.194526 0.0733138
0.525904 0.180841 0.0772239
0.738025 0.138807 0.085044
1 0 0.0967742
0 0.274682 0.0635386
0 0.274682 0.0635386
0.0684262 0.273705 0.0645161
0.190616 0.273705 0.0654936
0.278592 0.272727 0.0674487
0.379277 0.269795 0.0694037
0.525904 0.262952 0.0733138
0.739003 0.241447 0.0801564
1 0.170088 0.0928641
0 0.364614 0.0557185
0 0.364614 0.0557185
0 0.364614 0.0557185
0.151515 0.364614 0.056696
0.26002 0.363636 0.058651
0.370479 0.362659 0.0606061
0.523949 0.358749 0.0645161
0.73998 0.346041 0.0723363
1 0.31085 0.0860215
0 0.502444 0.0127077
0 0.502444 0.0136852
0 0.502444 0.0166178
0 0.502444 0.0195503
0.199413 0.502444 0.0234604
0.341153 0.501466 0.028348
0.510264 0.499511 0.0361681
0.737048 0.493646 0.0478983
1 0.475073 0.0664712
0 0.707722 0
0 0.707722 0
0 0.707722 0
0 0.706745 0
0 0.706745 0
0.237537 0.706745 0
0.465298 0.705767 0
0.718475 0.702835 0
1 0.694037 0
0 1 0
0 1 0
0 1 0
0 1 0
0 1 0
0 1 0
0.29912 1 0
0.651026 1 0
1 1 0
0 0 0.109482
0.0635386 0 0.115347
0.136852 0 0.123167
0.210166 0 0.129032
0.284457 0 0.13392
0.378299 0 0.139785
0.521017 0 0.146628
0.733138 0 0.155425
1 0 0.167155
0 0.0645161 0.119257
0.058651 0.0635386 0.12219
0.136852 0.0596285 0.1261
0.211144 0.0478983 0.130987
0.285435 0 0.135875
0.379277 0 0.140762
0.521994 0 0.146628
0.734115 0 0.155425
1 0 0.167155
0 0.132942 0.129032
0 0.132942 0.13001
0.131965 0.131965 0.131965
0.210166 0.129032 0.134897
0.286413 0.124145 0.13783
0.380254 0.112414 0.14174
0.523949 0.0742913 0.147605
0.735093 0 0.155425
1 0 0.166178
0 0.203324 0.13392
0 0.203324 0.134897
0.112414 0.202346 0.135875
0.204301 0.201369 0.13783
0.284457 0.199413 0.139785
0.381232 0.194526 0.142717
0.524927 0.180841 0.147605
0.737048 0.13783 0.154448
1 0 0.1652
0 0.274682 0.136852
0 0.274682 0.13783
0.0606061 0.273705 0.13783
0.188661 0.273705 0.139785
0.277615 0.272727 0.140762
0.378299 0.269795 0.143695
0.525904 0.262952 0.147605
0.739003 0.240469 0.15347
1 0.170088 0.164223
0 0.364614 0.138807
0 0.364614 0.138807
0 0.364614 0.138807
0.148583 0.364614 0.139785
0.258065 0.363636 0.140762
0.369501 0.362659 0.142717
0.522972 0.358749 0.14565
0.73998 0.346041 0.151515
1 0.31085 0.16129
0 0.502444 0.134897
0 0.502444 0.135875
0 0.502444 0.135875
0 0.502444 0.136852
0.197458 0.502444 0.136852
0.339198 0.501466 0.138807
0.510264 0.499511 0.14174
0.737048 0.493646 0.146628
1 0.475073 0.155425
0 0.707722 0.120235
0 0.707722 0.120235
0 0.707722 0.120235
0 0.706745 0.121212
0 0.706745 0.12219
0.235582 0.706745 0.123167
0.464321 0.705767 0.125122
0.718475 0.702835 0.13001
1 0.694037 0.138807
0 1 0.0518084
0 1 0.0518084
0 1 0.0527859
0 1 0.0537634
0 1 0.054741
0 1 0.0576735
0.298143 1 0.0615836
0.651026 1 0.0703812
1 1 0.0840665
0 0 0.167155
0.056696 0 0.172043
0.134897 0 0.180841
0.209189 0 0.188661
0.28348 0 0.194526
0.377322 0 0.201369
0.521017 0 0.211144
0.733138 0 0.221896
1 0 0.234604
0 0.0635386 0.176931
0.0478983 0.0625611 0.178886
0.13392 0.0576735 0.184751
0.209189 0.0449658 0.190616
0.284457 0 0.196481
0.378299 0 0.202346
0.521017 0 0.211144
0.734115 0 0.221896
1 0 0.234604
0 0.132942 0.188661
0 0.132942 0.189638
0.128055 0.131965 0.192571
0.208211 0.129032 0.196481
0.285435 0.123167 0.200391
0.380254 0.111437 0.205279
0.522972 0.0733138 0.212121
0.735093 0 0.221896
1 0 0.234604
0 0.203324 0.197458
0 0.203324 0.197458
0.106549 0.202346 0.199413
0.201369 0.201369 0.201369
0.282502 0.199413 0.204301
0.380254 0.194526 0.208211
0.524927 0.180841 0.214076
0.737048 0.136852 0.222874
1 0 0.234604
0 0.274682 0.203324
0 0.274682 0.203324
0.0439883 0.274682 0.204301
0.185728 0.273705 0.206256
0.27566 0.272727 0.208211
0.377322 0.269795 0.211144
0.524927 0.261975 0.216031
0.739003 0.240469 0.222874
1 0.16911 0.234604
0 0.364614 0.208211
0 0.364614 0.208211
0 0.364614 0.209189
0.143695 0.364614 0.210166
0.256109 0.363636 0.211144
0.368524 0.362659 0.213099
0.521994 0.358749 0.217009
0.73998 0.346041 0.223851
1 0.309873 0.233627
0 0.502444 0.211144
0 0.502444 0.211144
0 0.502444 0.212121
0 0.502444 0.213099
0.193548 0.502444 0.214076
0.337243 0.501466 0.215054
0.509286 0.499511 0.217986
0.73607 0.493646 0.222874
1 0.474096 0.231672
0 0.707722 0.209189
0 0.707722 0.209189
0 0.707722 0.209189
0 0.707722 0.210166
0 0.706745 0.211144
0.231672 0.706745 0.212121
0.462366 0.705767 0.214076
0.717498 0.702835 0.217986
1 0.694037 0.224829
0 1 0.191593
0 1 0.191593
0 1 0.191593
0 1 0.192571
0 1 0.192571
0 1 0.193548
0.294233 1 0.195503
0.649071 1 0.198436
1 1 0.204301
0 0 0.226784
0.0400782 0 0.229717
0.130987 0 0.238514
0.207234 0 0.246334
0.282502 0 0.254154
0.377322 0 0.262952
0.520039 0 0.273705
0.733138 0 0.286413
1 0 0.302053
0 0.0625611 0.234604
0.0205279 0.0615836 0.237537
0.13001 0.0557185 0.242424
0.207234 0.0410557 0.249267
0.282502 0 0.256109
0.377322 0 0.26393
0.521017 0 0.274682
0.733138 0 0.286413
1 0 0.302053
0 0.132942 0.247312
0 0.132942 0.249267
0.121212 0.130987 0.252199
0.205279 0.128055 0.256109
0.28348 0.12219 0.260997
0.378299 0.110459 0.26784
0.521994 0.0703812 0.276637
0.735093 0 0.28739
1 0 0.302053
0 0.203324 0.258065
0 0.203324 0.259042
0.0977517 0.202346 0.260997
0.197458 0.201369 0.26393
0.280547 0.199413 0.266862
0.378299 0.193548 0.27175
0.523949 0.179863 0.278592
0.737048 0.135875 0.289345
1 0 0.30303
0 0.274682 0.266862
0 0.274682 0.266862
0 0.274682 0.26784
0.180841 0.273705 0.269795
0.272727 0.272727 0.272727
0.375367 0.269795 0.27566
0.523949 0.261975 0.281525
0.738025 0.239492 0.290323
1 0.168133 0.30303
0 0.364614 0.273705
0 0.364614 0.274682
0 0.364614 0.27566
0.135875 0.364614 0.276637
0.252199 0.363636 0.278592
0.365591 0.362659 0.280547
0.521017 0.357771 0.285435
0.739003 0.346041 0.292278
1 0.309873 0.304008
0 0.502444 0.281525
0 0.502444 0.281525
0 0.502444 0.282502
0 0.502444 0.28348
0.187683 0.502444 0.284457
0.334311 0.501466 0.285435
0.507331 0.499511 0.289345
0.735093 0.492669 0.294233
1 0.474096 0.304008
0 0.707722 0.286413
0 0.707722 0.286413
0 0.707722 0.286413
0 0.707722 0.286413
0 0.706745 0.28739
0.226784 0.706745 0.288368
0.460411 0.705767 0.2913
0.71652 0.702835 0.29521
1 0.694037 0.302053
0 1 0.281525
0 1 0.281525
0 1 0.281525
0 1 0.281525
0 1 0.282502
0 1 0.282502
0.290323 1 0.284457
0.648094 1 0.28739
1 1 0.293255
0 0 0.301075
0 0 0.304008
0.123167 0 0.311828
0.203324 0 0.319648
0.280547 0 0.328446
0.375367 0 0.338221
0.519062 0 0.350929
0.73216 0 0.366569
1 0 0.384164
0 0.0606061 0.307918
0 0.058651 0.31085
0.121212 0.0518084 0.315738
0.203324 0.0332356 0.323558
0.280547 0 0.331378
0.376344 0 0.340176
0.520039 0 0.351906
0.733138 0 0.366569
1 0 0.385142
0 0.132942 0.321603
0 0.131965 0.322581
0.109482 0.130987 0.326491
0.200391 0.127077 0.331378
0.27957 0.121212 0.337243
0.376344 0.108504 0.344086
0.521017 0.0654936 0.354839
0.734115 0 0.368524
1 0 0.385142
0 0.203324 0.333333
0 0.203324 0.334311
0.0782014 0.202346 0.336266
0.190616 0.201369 0.340176
0.276637 0.198436 0.344086
0.376344 0.193548 0.349951
0.521994 0.178886 0.358749
0.73607 0.13392 0.370479
1 0 0.386119
0 0.274682 0.344086
0 0.274682 0.345064
0 0.274682 0.346041
0.172043 0.273705 0.347996
0.26784 0.272727 0.350929
0.372434 0.269795 0.355816
0.521994 0.260997 0.362659
0.737048 0.239492 0.373412
1 0.166178 0.388074
0 0.365591 0.354839
0 0.365591 0.354839
0 0.364614 0.355816
0.12219 0.364614 0.356794
0.246334 0.363636 0.359726
0.362659 0.362659 0.362659
0.519062 0.357771 0.367546
0.738025 0.345064 0.376344
1 0.308895 0.389052
0 0.503421 0.365591
0 0.502444 0.365591
0 0.502444 0.366569
0 0.502444 0.367546
0.177908 0.502444 0.368524
0.330401 0.501466 0.370479
0.504399 0.499511 0.374389
0.734115 0.492669 0.381232
1 0.474096 0.391984
0 0.707722 0.376344
0 0.707722 0.376344
0 0.707722 0.376344
0 0.707722 0.377322
0 0.707722 0.377322
0.217986 0.706745 0.379277
0.457478 0.705767 0.381232
0.714565 0.702835 0.386119
1 0.694037 0.393939
0 1 0.380254
0 1 0.380254
0 1 0.380254
0 1 0.381232
0 1 0.381232
0 1 0.382209
0.28348 1 0.384164
0.645161 1 0.387097
1 1 0.392962
0 0 0.414467
0 0 0.4174
0.101662 0 0.423265
0.194526 0 0.432063
0.274682 0 0.44086
0.372434 0 0.451613
0.517107 0 0.466276
0.731183 0 0.484848
1 0 0.507331
0 0.0527859 0.420332
0 0.0498534 0.422287
0.0967742 0.0391007 0.428153
0.192571 0 0.434995
0.274682 0 0.442815
0.372434 0 0.453568
0.518084 0 0.467253
0.731183 0 0.485826
1 0 0.507331
0 0.130987 0.43304
0 0.130987 0.434018
0.0762463 0.129032 0.437928
0.187683 0.124145 0.443793
0.272727 0.117302 0.449658
0.372434 0.103617 0.458456
0.519062 0.0537634 0.471163
0.73216 0 0.487781
1 0 0.508309
0 0.203324 0.446725
0 0.203324 0.447703
0 0.202346 0.449658
0.175953 0.200391 0.453568
0.26784 0.197458 0.458456
0.370479 0.191593 0.465298
0.519062 0.175953 0.476051
0.734115 0.129032 0.490714
1 0 0.510264
0 0.274682 0.459433
0 0.274682 0.459433
0 0.274682 0.461388
0.152493 0.273705 0.464321
0.257087 0.27175 0.467253
0.366569 0.268817 0.473118
0.518084 0.26002 0.480938
0.735093 0.236559 0.494624
1 0.162268 0.512219
0 0.365591 0.472141
0 0.365591 0.473118
0 0.365591 0.474096
0.085044 0.364614 0.476051
0.233627 0.363636 0.478006
0.354839 0.361681 0.481916
0.514174 0.357771 0.488759
0.735093 0.344086 0.499511
1 0.30694 0.515152
0 0.503421 0.488759
0 0.503421 0.488759
0 0.503421 0.489736
0 0.502444 0.490714
0.154448 0.502444 0.491691
0.320626 0.501466 0.494624
0.499511 0.499511 0.499511
0.731183 0.492669 0.507331
1 0.473118 0.520039
0 0.707722 0.505376
0 0.707722 0.505376
0 0.707722 0.505376
0 0.707722 0.506354
0 0.707722 0.507331
0.198436 0.706745 0.508309
0.449658 0.705767 0.512219
0.710655 0.702835 0.517107
1 0.69306 0.526882
0 1 0.519062
0 1 0.519062
0 1 0.519062
0 1 0.520039
0 1 0.520039
0 1 0.521017
0.268817 1 0.522972
0.640274 1 0.526882
1 1 0.532747
0 0 0.583578
0 0 0.585533
0 0 0.59042
0.167155 0 0.597263
0.26002 0 0.606061
0.363636 0 0.616813
0.512219 0 0.633431
0.72825 0 0.655914
1 0 0.683284
0 0.0185728 0.588465
0 0 0.589443
0 0 0.59433
0.1652 0 0.601173
0.259042 0 0.608993
0.362659 0 0.619746
0.512219 0 0.635386
0.72825 0 0.656892
1 0 0.684262
0 0.127077 0.599218
0 0.1261 0.600196
0 0.123167 0.604106
0.155425 0.117302 0.608993
0.255132 0.109482 0.615836
0.361681 0.0918866 0.624633
0.512219 0 0.639296
0.729228 0 0.659824
1 0 0.685239
0 0.201369 0.612903
0 0.201369 0.613881
0 0.200391 0.615836
0.135875 0.197458 0.620723
0.247312 0.194526 0.625611
0.358749 0.187683 0.633431
0.512219 0.170088 0.645161
0.730205 0.11828 0.663734
1 0 0.687195
0 0.274682 0.626588
0 0.274682 0.627566
0 0.273705 0.629521
0.0957967 0.272727 0.632454
0.233627 0.270772 0.636364
0.352884 0.266862 0.642229
0.510264 0.257087 0.652981
0.730205 0.232649 0.668622
1 0.15347 0.690127
0 0.365591 0.642229
0 0.365591 0.643206
0 0.365591 0.644184
0 0.364614 0.647116
0.203324 0.363636 0.650049
0.338221 0.361681 0.653959
0.505376 0.355816 0.662757
0.730205 0.342131 0.675464
1 0.304008 0.695015
0 0.503421 0.663734
0 0.503421 0.663734
0 0.503421 0.664712
0 0.503421 0.665689
0.086999 0.502444 0.667644
0.29912 0.501466 0.670577
0.487781 0.498534 0.676442
0.72434 0.491691 0.687195
1 0.472141 0.702835
0 0.707722 0.687195
0 0.707722 0.687195
0 0.707722 0.688172
0 0.707722 0.68915
0 0.707722 0.690127
0.151515 0.706745 0.692082
0.434995 0.705767 0.695992
0.702835 0.702835 0.702835
1 0.69306 0.714565
0 1 0.711632
0 1 0.711632
0 1 0.711632
0 1 0.71261
0 1 0.71261
0 1 0.714565
0.234604 1 0.71652
0.629521 1 0.72043
1 1 0.72825
0 0 0.83089
0 0 0.831867
0 0 0.835777
0.0439883 0 0.841642
0.217009 0 0.848485
0.339198 0 0.859238
0.498534 0 0.875855
0.72043 0 0.901271
1 0 0.933529
0 0 0.833822
0 0 0.8348
0 0 0.83871
0.0146628 0 0.844575
0.214076 0 0.851417
0.338221 0 0.861193
0.498534 0 0.87781
0.72043 0 0.902248
1 0 0.934506
0 0.111437 0.84262
0 0.110459 0.843597
0 0.105572 0.84653
0 0.0987292 0.851417
0.207234 0.0860215 0.85826
0.335288 0.056696 0.867058
0.497556 0 0.88172
0.721408 0 0.905181
1 0 0.935484
0 0.196481 0.855327
0 0.195503 0.856305
0 0.193548 0.85826
0 0.190616 0.86217
0.192571 0.185728 0.868035
0.329423 0.177908 0.875855
0.495601 0.15738 0.888563
0.721408 0.0918866 0.910068
1 0 0.939394
0 0.27175 0.869013
0 0.27175 0.869013
0 0.270772 0.871945
0 0.268817 0.874878
0.16911 0.266862 0.878788
0.319648 0.261975 0.88563
0.492669 0.251222 0.897361
0.72043 0.223851 0.915934
1 0.13392 0.943304
0 0.364614 0.886608
0 0.364614 0.886608
0 0.364614 0.888563
0 0.363636 0.891496
0.109482 0.361681 0.894428
0.301075 0.358749 0.899316
0.484848 0.352884 0.909091
0.718475 0.338221 0.924731
1 0.296188 0.949169
0 0.503421 0.911046
0 0.503421 0.912023
0 0.503421 0.913001
0 0.503421 0.914956
0 0.502444 0.916911
0.248289 0.500489 0.920821
0.463343 0.497556 0.927664
0.710655 0.489736 0.940371
1 0.468231 0.959922
0 0.7087 0.942326
0 0.7087 0.943304
0 0.7087 0.943304
0 0.7087 0.944282
0 0.707722 0.946237
0 0.707722 0.948192
0.40176 0.705767 0.953079
0.686217 0.701857 0.961877
1 0.691105 0.97654
0 1 0.977517
0 1 0.977517
0 1 0.978495
0 1 0.978495
0 1 0.979472
0 1 0.981427
0.134897 1 0.98436
0.607038 1 0.989247
1 0.999022 1
