proprietary/odm/etc/hdr3dlut_pq_qcom_grid_out_rgb.cube
LUT_3D_SIZE 9
0 0 0
0.0625611 0 0.00391007
0.123167 0 0.00684262
0.243402 0 0.0146628
0.384164 0 0.0224829
0.506354 0 0.030303
0.659824 0 0.0391007
0.856305 0 0.0518084
1 0 0.11437
0 0.0498534 0
0.0469208 0.0459433 0
0.116325 0.0254154 0.00391007
0.243402 0 0.0136852
0.384164 0 0.0224829
0.506354 0 0.030303
0.659824 0 0.0391007
0.856305 0 0.0508309
1 0 0.11437
0 0.105572 0
0 0.105572 0
0.104594 0.102639 0
0.238514 0.0889541 0
0.382209 0.0469208 0.0166178
0.504399 0 0.026393
0.657869 0 0.0361681
0.855327 0 0.0498534
1 0 0.11437
0 0.219941 0
0 0.219941 0
0 0.218964 0
0.218964 0.214076 0
0.370479 0.202346 0
0.496579 0.186706 0
0.652004 0.15347 0.0195503
0.851417 0.0469208 0.0391007
1 0 0.111437
0 0.347019 0
0 0.347019 0
0 0.347019 0
0.1652 0.343109 0
0.344086 0.337243 0
0.478006 0.328446 0
0.640274 0.313783 0
0.84262 0.284457 0
1 0 0.106549
0 0.456501 0
0 0.456501 0
0 0.456501 0
0 0.454545 0
0.307918 0.449658 0
0.454545 0.44477 0
0.623656 0.434018 0
0.829912 0.414467 0
1 0 0.0997067
0 0.596285 0
0 0.596285 0
0 0.596285 0
0 0.595308 0
0.224829 0.591398 0
0.407625 0.587488 0
0.593353 0.579668 0
0.808407 0.56696 0
1 0 0.0879765
0 0.774194 0
0 0.774194 0
0 0.774194 0
0 0.772238 0
0 0.770283 0
0.305963 0.767351 0
0.533724 0.761486 0
0.768328 0.751711 0
1 0.374389 0.0615836
0 1 0
0 1 0
0 1 0
0 1 0
0 1 0
0 1 0
0 1 0
0 1 0
1 1 0
0 0 0.0557185
0.0596285 0 0.0537634
0.12219 0 0.0391007
0.243402 0 0.0391007
0.384164 0 0.0420332
0.506354 0 0.0459433
0.659824 0 0.0527859
0.856305 0 0.0615836
1 0 0.117302
0 0.0488759 0.0469208
0.0449658 0.0449658 0.0449658
0.115347 0.0254154 0.0371457
0.242424 0 0.0381232
0.384164 0 0.0420332
0.506354 0 0.0459433
0.659824 0 0.0518084
0.856305 0 0.0615836
1 0 0.117302
0 0.105572 0.0332356
0 0.105572 0.0332356
0.104594 0.102639 0.0342131
0.238514 0.0889541 0.0361681
0.381232 0.0469208 0.0391007
0.504399 0 0.0439883
0.657869 0 0.0508309
0.855327 0 0.0596285
1 0 0.116325
0 0.219941 0.0117302
0 0.219941 0.0117302
0 0.218964 0.0136852
0.218964 0.214076 0.0175953
0.370479 0.202346 0.0254154
0.496579 0.186706 0.0322581
0.652004 0.15347 0.0410557
0.851417 0.0469208 0.0527859
1 0 0.11437
0 0.347019 0
0 0.347019 0
0 0.347019 0
0.1652 0.343109 0
0.344086 0.337243 0
0.478006 0.328446 0
0.640274 0.313783 0
0.84262 0.284457 0.0293255
1 0 0.109482
0 0.456501 0
0 0.456501 0
0 0.456501 0
0 0.454545 0
0.307918 0.449658 0
0.454545 0.44477 0
0.623656 0.434018 0
0.829912 0.414467 0
1 0 0.102639
0 0.596285 0
0 0.596285 0
0 0.596285 0
0 0.595308 0
0.224829 0.591398 0
0.407625 0.587488 0
0.593353 0.579668 0
0.808407 0.56696 0
1 0 0.0909091
0 0.774194 0
0 0.774194 0
0 0.774194 0
0 0.772238 0
0 0.770283 0
0.305963 0.767351 0
0.533724 0.761486 0
0.768328 0.751711 0
1 0.374389 0.0664712
0 1 0
0 1 0
0 1 0
0 1 0
0 1 0
0 1 0
0 1 0
0 1 0
1 1 0
0 0 0.138807
0.0410557 0 0.130987
0.115347 0 0.104594
0.242424 0 0.103617
0.384164 0 0.104594
0.506354 0 0.105572
0.659824 0 0.108504
0.856305 0 0.112414
1 0 0.135875
0 0.0430108 0.123167
0.030303 0.0400782 0.11828
0.112414 0.0224829 0.102639
0.241447 0 0.103617
0.383187 0 0.104594
0.506354 0 0.105572
0.659824 0 0.108504
0.856305 0 0.112414
1 0 0.135875
0 0.104594 0.101662
0 0.104594 0.101662
0.101662 0.101662 0.101662
0.237537 0.0889541 0.102639
0.381232 0.0449658 0.103617
0.504399 0 0.104594
0.657869 0 0.107527
0.855327 0 0.111437
1 0 0.134897
0 0.219941 0.0977517
0 0.219941 0.0977517
0 0.218964 0.0977517
0.217986 0.214076 0.0987292
0.370479 0.202346 0.0997067
0.496579 0.185728 0.101662
0.652004 0.152493 0.103617
0.851417 0.0449658 0.108504
1 0 0.132942
0 0.347019 0.0889541
0 0.347019 0.0889541
0 0.346041 0.0889541
0.163245 0.343109 0.0899316
0.344086 0.337243 0.0909091
0.478006 0.328446 0.0928641
0.640274 0.312805 0.0957967
0.84262 0.284457 0.100684
1 0 0.129032
0 0.456501 0.0752688
0 0.456501 0.0752688
0 0.456501 0.0762463
0 0.454545 0.0762463
0.30694 0.449658 0.0782014
0.453568 0.44477 0.0801564
0.623656 0.434018 0.0840665
0.829912 0.414467 0.0889541
1 0 0.123167
0 0.596285 0.0400782
0 0.596285 0.0400782
0 0.596285 0.0410557
0 0.595308 0.0420332
0.223851 0.591398 0.0449658
0.407625 0.587488 0.0488759
0.592375 0.579668 0.054741
0.808407 0.56696 0.0635386
1 0 0.113392
0 0.774194 0
0 0.774194 0
0 0.774194 0
0 0.772238 0
0 0.770283 0
0.304985 0.767351 0
0.533724 0.761486 0
0.768328 0.751711 0
1 0.374389 0.0948192
0 1 0
0 1 0
0 1 0
0 1 0
0 1 0
0 1 0
0 1 0
0 1 0
1 1 0
0 0 0.220919
0 0 0.217009
0.103617 0 0.214076
0.238514 0 0.214076
0.381232 0 0.215054
0.504399 0 0.216031
0.657869 0 0.216031
0.855327 0 0.217986
1 0 0.196481
0 0.028348 0.214076
0 0.026393 0.214076
0.102639 0 0.214076
0.237537 0 0.214076
0.381232 0 0.215054
0.504399 0 0.216031
0.657869 0 0.216031
0.855327 0 0.217986
1 0 0.196481
0 0.103617 0.214076
0 0.102639 0.214076
0.0899316 0.0997067 0.214076
0.232649 0.0860215 0.214076
0.379277 0.0400782 0.215054
0.502444 0 0.215054
0.656892 0 0.216031
0.85435 0 0.217986
1 0 0.196481
0 0.218964 0.212121
0 0.218964 0.212121
0 0.217986 0.212121
0.213099 0.213099 0.213099
0.367546 0.201369 0.213099
0.494624 0.184751 0.214076
0.651026 0.151515 0.214076
0.85044 0.0400782 0.216031
1 0 0.194526
0 0.347019 0.209189
0 0.347019 0.209189
0 0.346041 0.209189
0.156403 0.343109 0.209189
0.341153 0.336266 0.209189
0.476051 0.327468 0.210166
0.639296 0.312805 0.211144
0.841642 0.28348 0.213099
1 0 0.191593
0 0.456501 0.204301
0 0.456501 0.204301
0 0.456501 0.204301
0 0.453568 0.204301
0.304008 0.449658 0.205279
0.451613 0.443793 0.206256
0.622678 0.43304 0.207234
0.828934 0.414467 0.209189
1 0 0.186706
0 0.596285 0.196481
0 0.596285 0.196481
0 0.596285 0.196481
0 0.59433 0.196481
0.218964 0.591398 0.197458
0.40567 0.587488 0.197458
0.591398 0.579668 0.199413
0.807429 0.565982 0.201369
1 0 0.178886
0 0.774194 0.180841
0 0.774194 0.180841
0 0.773216 0.180841
0 0.772238 0.181818
0 0.770283 0.181818
0.302053 0.767351 0.182796
0.531769 0.761486 0.183773
0.767351 0.751711 0.185728
1 0.374389 0.166178
0 1 0
0 1 0
0 1 0
0 1 0
0 1 0
0 1 0
0 1 0
0 1 0
1 1 0
0 0 0.339198
0 0 0.339198
0.0742913 0 0.339198
0.228739 0 0.338221
0.376344 0 0.339198
0.500489 0 0.339198
0.655914 0 0.339198
0.853372 0 0.340176
1 0 0.281525
0 0 0.339198
0 0 0.339198
0.0723363 0 0.339198
0.227761 0 0.338221
0.376344 0 0.339198
0.500489 0 0.339198
0.654936 0 0.339198
0.853372 0 0.340176
1 0 0.281525
0 0.0987292 0.338221
0 0.0987292 0.338221
0.0508309 0.0957967 0.338221
0.223851 0.0811339 0.338221
0.373412 0.0224829 0.339198
0.498534 0 0.339198
0.653959 0 0.339198
0.852395 0 0.340176
1 0 0.281525
0 0.217009 0.337243
0 0.217009 0.337243
0 0.216031 0.337243
0.202346 0.211144 0.338221
0.361681 0.199413 0.338221
0.490714 0.182796 0.338221
0.648094 0.14956 0.338221
0.848485 0.0224829 0.339198
1 0 0.27957
0 0.346041 0.335288
0 0.346041 0.335288
0 0.345064 0.335288
0.140762 0.342131 0.335288
0.335288 0.335288 0.335288
0.472141 0.326491 0.335288
0.636364 0.311828 0.336266
0.839687 0.282502 0.338221
1 0 0.276637
0 0.455523 0.332356
0 0.455523 0.332356
0 0.455523 0.332356
0 0.453568 0.332356
0.297165 0.44868 0.333333
0.447703 0.442815 0.333333
0.619746 0.43304 0.334311
0.826979 0.41349 0.335288
1 0 0.272727
0 0.596285 0.328446
0 0.596285 0.328446
0 0.595308 0.328446
0 0.59433 0.328446
0.209189 0.591398 0.328446
0.400782 0.58651 0.329423
0.588465 0.57869 0.329423
0.805474 0.565982 0.330401
1 0 0.264907
0 0.773216 0.320626
0 0.773216 0.320626
0 0.773216 0.320626
0 0.772238 0.320626
0 0.769306 0.320626
0.29521 0.766373 0.320626
0.528837 0.760508 0.321603
0.765396 0.750733 0.322581
1 0.373412 0.253177
0 1 0
0 1 0
0 1 0
0 1 0
0 1 0
0 1 0
0 1 0
0 1 0
1 1 0.0400782
0 0 0.445748
0 0 0.445748
0 0 0.445748
0.216031 0 0.445748
0.369501 0 0.446725
0.495601 0 0.446725
0.652004 0 0.445748
0.85044 0 0.447703
1 0 0.360704
0 0 0.445748
0 0 0.445748
0 0 0.445748
0.215054 0 0.445748
0.369501 0 0.446725
0.495601 0 0.446725
0.652004 0 0.445748
0.85044 0 0.447703
1 0 0.360704
0 0.0928641 0.445748
0 0.0918866 0.445748
0 0.0889541 0.445748
0.211144 0.0733138 0.445748
0.366569 0 0.446725
0.493646 0 0.446725
0.650049 0 0.445748
0.849462 0 0.447703
1 0 0.359726
0 0.215054 0.445748
0 0.215054 0.445748
0 0.214076 0.445748
0.186706 0.208211 0.445748
0.354839 0.197458 0.445748
0.484848 0.179863 0.445748
0.645161 0.14565 0.445748
0.845552 0 0.446725
1 0 0.358749
0 0.344086 0.443793
0 0.344086 0.443793
0 0.343109 0.443793
0.116325 0.340176 0.443793
0.327468 0.334311 0.443793
0.467253 0.325513 0.443793
0.632454 0.309873 0.44477
0.836755 0.280547 0.445748
1 0 0.354839
0 0.454545 0.441838
0 0.454545 0.441838
0 0.454545 0.441838
0 0.45259 0.441838
0.28739 0.447703 0.441838
0.442815 0.441838 0.441838
0.615836 0.432063 0.442815
0.825024 0.412512 0.443793
1 0 0.349951
0 0.595308 0.438905
0 0.595308 0.438905
0 0.595308 0.438905
0 0.593353 0.438905
0.194526 0.59042 0.438905
0.393939 0.585533 0.438905
0.584555 0.57869 0.439883
0.802542 0.565005 0.44086
1 0 0.343109
0 0.773216 0.43304
0 0.773216 0.43304
0 0.772238 0.43304
0 0.771261 0.43304
0 0.769306 0.43304
0.286413 0.766373 0.43304
0.523949 0.760508 0.434018
0.762463 0.750733 0.434018
1 0.372434 0.330401
0 1 0.160313
0 1 0.160313
0 1 0.160313
0 1 0.160313
0 1 0.160313
0 1 0.159335
0 1 0.159335
0 1 0.159335
1 1 0.15347
0 0 0.581623
0 0 0.581623
0 0 0.581623
0.191593 0 0.5826
0.356794 0 0.5826
0.486804 0 0.5826
0.645161 0 0.581623
0.84653 0 0.5826
1 0 0.462366
0 0 0.581623
0 0 0.581623
0 0 0.581623
0.190616 0 0.5826
0.356794 0 0.5826
0.486804 0 0.5826
0.645161 0 0.581623
0.84653 0 0.5826
1 0 0.462366
0 0.0811339 0.581623
0 0.0801564 0.581623
0 0.0762463 0.581623
0.184751 0.056696 0.5826
0.353861 0 0.5826
0.484848 0 0.5826
0.644184 0 0.581623
0.845552 0 0.5826
1 0 0.461388
0 0.211144 0.581623
0 0.211144 0.581623
0 0.210166 0.581623
0.156403 0.204301 0.581623
0.342131 0.192571 0.581623
0.476051 0.174976 0.580645
0.638319 0.138807 0.581623
0.841642 0 0.5826
1 0 0.459433
0 0.342131 0.579668
0 0.341153 0.579668
0 0.341153 0.579668
0.0371457 0.338221 0.579668
0.312805 0.331378 0.579668
0.457478 0.323558 0.579668
0.626588 0.307918 0.580645
0.831867 0.277615 0.581623
1 0 0.455523
0 0.453568 0.57869
0 0.453568 0.57869
0 0.45259 0.57869
0 0.450635 0.57869
0.270772 0.446725 0.57869
0.432063 0.44086 0.57869
0.608993 0.430108 0.579668
0.820137 0.410557 0.579668
1 0 0.450635
0 0.59433 0.576735
0 0.59433 0.576735
0 0.593353 0.576735
0 0.592375 0.576735
0.166178 0.589443 0.576735
0.382209 0.584555 0.576735
0.577713 0.576735 0.577713
0.797654 0.564027 0.577713
1 0 0.442815
0 0.772238 0.572825
0 0.772238 0.572825
0 0.772238 0.572825
0 0.770283 0.572825
0 0.768328 0.572825
0.268817 0.765396 0.572825
0.516129 0.759531 0.572825
0.757576 0.749756 0.572825
1 0.370479 0.428153
0 1 0.264907
0 1 0.264907
0 1 0.264907
0 1 0.264907
0 1 0.26393
0 1 0.26393
0 1 0.262952
0 1 0.261975
1 1 0.239492
0 0 0.755621
0 0 0.755621
0 0 0.755621
0.134897 0 0.755621
0.333333 0 0.755621
0.471163 0 0.754643
0.634409 0 0.754643
0.83871 0 0.755621
1 0 0.592375
0 0 0.755621
0 0 0.755621
0 0 0.755621
0.13392 0 0.755621
0.333333 0 0.755621
0.471163 0 0.754643
0.634409 0 0.754643
0.83871 0 0.755621
1 0 0.592375
0 0.0527859 0.755621
0 0.0518084 0.755621
0 0.0459433 0.755621
0.125122 0 0.755621
0.330401 0 0.755621
0.469208 0 0.754643
0.633431 0 0.754643
0.837732 0 0.755621
1 0 0.591398
0 0.203324 0.754643
0 0.203324 0.754643
0 0.202346 0.754643
0.0684262 0.196481 0.754643
0.316716 0.183773 0.753666
0.459433 0.166178 0.753666
0.627566 0.127077 0.754643
0.832845 0 0.754643
1 0 0.589443
0 0.337243 0.752688
0 0.337243 0.752688
0 0.336266 0.752688
0 0.334311 0.752688
0.285435 0.327468 0.752688
0.44086 0.318671 0.753666
0.614858 0.30303 0.753666
0.824047 0.272727 0.754643
1 0 0.584555
0 0.450635 0.752688
0 0.450635 0.752688
0 0.449658 0.752688
0 0.447703 0.752688
0.237537 0.443793 0.752688
0.414467 0.437928 0.752688
0.597263 0.427175 0.752688
0.811339 0.407625 0.753666
1 0 0.57869
0 0.592375 0.750733
0 0.592375 0.750733
0 0.591398 0.750733
0 0.59042 0.750733
0.0909091 0.58651 0.750733
0.361681 0.5826 0.750733
0.565005 0.57478 0.751711
0.788856 0.561095 0.751711
1 0 0.568915
0 0.770283 0.747801
0 0.770283 0.747801
0 0.770283 0.747801
0 0.769306 0.747801
0 0.766373 0.747801
0.235582 0.763441 0.747801
0.501466 0.757576 0.747801
0.747801 0.747801 0.747801
1 0.367546 0.552297
0 1 0.375367
0 1 0.375367
0 1 0.375367
0 1 0.375367
0 1 0.374389
0 1 0.374389
0 1 0.372434
0 1 0.370479
1 1 0.334311
0 0 1
0 0 1
0 0 1
0 0 1
0 0 1
0 0 1
0.316716 0 1
0.651026 0 1
1 0 1
0 0 1
0 0 1
0 0 1
0 0 1
0 0 1
0 0 1
0.315738 0 1
0.651026 0 1
1 0 1
0 0 1
0 0 1
0 0 1
0 0 1
0 0 1
0 0 1
0.312805 0 1
0.650049 0 1
1 0 1
0 0 1
0 0 1
0 0 1
0 0 1
0 0 1
0 0 1
0.29912 0 1
0.644184 0 1
1 0 1
0 0.237537 1
0 0.237537 1
0 0.236559 1
0 0.232649 1
0 0.221896 1
0 0.208211 1
0.264907 0.179863 1
0.631476 0.111437 1
1 0 1
0 0.387097 1
0 0.387097 1
0 0.386119 1
0 0.384164 1
0 0.378299 1
0 0.370479 1
0.211144 0.357771 1
0.604106 0.327468 1
1 0 1
0 0.54741 1
0 0.54741 1
0 0.54741 1
0 0.545455 1
0 0.539589 1
0 0.529814 1
0 0.513196 1
0.55132 0.486804 1
1 0 1
0 0.695015 1
0 0.694037 1
0 0.694037 1
0 0.691105 1
0 0.684262 1
0 0.676442 1
0 0.662757 1
0.468231 0.641251 1
1 0.308895 1
0 1 1
0 1 1
0 1 1
0 1 1
0 1 1
0 1 1
0 1 1
0 1 1
0.999022 0.999022 0.999022
