proprietary/odm/etc/hdr3dlut_pq_qcom_grid_out_rgb.cube
LUT_3D_SIZE 5
0 0 0
0.123167 0 0.00684262
0.384164 0 0.0224829
0.659824 0 0.0391007
1 0 0.11437
0 0.105572 0
0.104594 0.102639 0
0.382209 0.0469208 0.0166178
0.657869 0 0.0361681
1 0 0.11437
0 0.347019 0
0 0.347019 0
0.344086 0.337243 0
0.640274 0.313783 0
1 0 0.106549
0 0.596285 0
0 0.596285 0
0.224829 0.591398 0
0.593353 0.579668 0
1 0 0.0879765
0 1 0
0 1 0
0 1 0
0 1 0
1 1 0
0 0 0.138807
0.115347 0 0.104594
0.384164 0 0.104594
0.659824 0 0.108504
1 0 0.135875
0 0.104594 0.101662
0.101662 0.101662 0.101662
0.381232 0.0449658 0.103617
0.657869 0 0.107527
1 0 0.134897
0 0.347019 0.0889541
0 0.346041 0.0889541
0.344086 0.337243 0.0909091
0.640274 0.312805 0.0957967
1 0 0.129032
0 0.596285 0.0400782
0 0.596285 0.0410557
0.223851 0.591398 0.0449658
0.592375 0.579668 0.054741
1 0 0.113392
0 1 0
0 1 0
0 1 0
0 1 0
1 1 0
0 0 0.339198
0.0742913 0 0.339198
0.376344 0 0.339198
0.655914 0 0.339198
1 0 0.281525
0 0.0987292 0.338221
0.0508309 0.0957967 0.338221
0.373412 0.0224829 0.339198
0.653959 0 0.339198
1 0 0.281525
0 0.346041 0.335288
0 0.345064 0.335288
0.335288 0.335288 0.335288
0.636364 0.311828 0.336266
1 0 0.276637
0 0.596285 0.328446
0 0.595308 0.328446
0.209189 0.591398 0.328446
0.588465 0.57869 0.329423
1 0 0.264907
0 1 0
0 1 0
0 1 0
0 1 0
1 1 0.0400782
0 0 0.581623
0 0 0.581623
0.356794 0 0.5826
0.645161 0 0.581623
1 0 0.462366
0 0.0811339 0.581623
0 0.0762463 0.581623
0.353861 0 0.5826
0.644184 0 0.581623
1 0 0.461388
0 0.342131 0.579668
0 0.341153 0.579668
0.312805 0.331378 0.579668
0.626588 0.307918 0.580645
1 0 0.455523
0 0.59433 0.576735
0 0.593353 0.576735
0.166178 0.589443 0.576735
0.577713 0.576735 0.577713
1 0 0.442815
0 1 0.264907
0 1 0.264907
0 1 0.26393
0 1 0.262952
1 1 0.239492
0 0 1
0 0 1
0 0 1
0.316716 0 1
1 0 1
0 0 1
0 0 1
0 0 1
0.312805 0 1
1 0 1
0 0.237537 1
0 0.236559 1
0 0.221896 1
0.264907 0.179863 1
1 0 1
0 0.54741 1
0 0.54741 1
0 0.539589 1
0 0.513196 1
1 0 1
0 1 1
0 1 1
0 1 1
0 1 1
0.999022 0.999022 0.999022
