proprietary/odm/etc/hdr3dlut_pq_qcom_grid_out_rgb.cube
LUT_3D_SIZE 17
0 0 0
0.028348 0 0.00195503
0.0625611 0 0.00391007
0.0918866 0 0.00488759
0.123167 0 0.00684262
0.160313 0 0.00977517
0.243402 0 0.0146628
0.332356 0 0.0195503
0.384164 0 0.0224829
0.441838 0 0.026393
0.506354 0 0.030303
0.57869 0 0.0342131
0.659824 0 0.0391007
0.751711 0 0.0449658
0.856305 0 0.0518084
1 0 0.0889541
1 0 0.11437
0 0.026393 0
0.026393 0.0254154 0
0.058651 0.0195503 0.000977517
0.0899316 0 0.00391007
0.121212 0 0.00684262
0.160313 0 0.00879765
0.243402 0 0.0146628
0.332356 0 0.0195503
0.384164 0 0.0224829
0.441838 0 0.026393
0.506354 0 0.030303
0.57869 0 0.0342131
0.659824 0 0.0391007
0.751711 0 0.0449658
0.856305 0 0.0518084
1 0 0.0889541
1 0 0.11437
0 0.0498534 0
0 0.0488759 0
0.0469208 0.0459433 0
0.0811339 0.0391007 0
0.116325 0.0254154 0.00391007
0.160313 0 0.00782014
0.243402 0 0.0136852
0.332356 0 0.0195503
0.384164 0 0.0224829
0.441838 0 0.0254154
0.506354 0 0.030303
0.57869 0 0.0342131
0.659824 0 0.0391007
0.750733 0 0.0449658
0.856305 0 0.0508309
1 0 0.0889541
1 0 0.11437
0 0.0703812 0
0 0.0694037 0
0.0254154 0.0684262 0
0.0654936 0.0645161 0
0.112414 0.0596285 0
0.158358 0.0537634 0
0.241447 0.0254154 0.0107527
0.331378 0 0.0175953
0.383187 0 0.0205279
0.441838 0 0.0244379
0.506354 0 0.0293255
0.57869 0 0.0332356
0.659824 0 0.0381232
0.750733 0 0.0439883
0.855327 0 0.0508309
1 0 0.0879765
1 0 0.11437
0 0.105572 0
0 0.105572 0
0 0.105572 0
0.0478983 0.104594 0
0.104594 0.102639 0
0.15347 0.0997067 0
0.238514 0.0889541 0
0.329423 0.0684262 0.0117302
0.382209 0.0469208 0.0166178
0.439883 0 0.0215054
0.504399 0 0.026393
0.577713 0 0.0312805
0.657869 0 0.0361681
0.749756 0 0.0430108
0.855327 0 0.0498534
1 0 0.0879765
1 0 0.11437
0 0.14565 0
0 0.14565 0
0 0.144673 0
0 0.144673 0
0.0909091 0.142717 0
0.144673 0.140762 0
0.233627 0.134897 0
0.326491 0.123167 0
0.379277 0.11437 0
0.43695 0.0997067 0.0136852
0.502444 0.0762463 0.0205279
0.575758 0 0.0273705
0.656892 0 0.0332356
0.748778 0 0.0400782
0.85435 0 0.0469208
1 0 0.0860215
1 0 0.113392
0 0.219941 0
0 0.219941 0
0 0.219941 0
0 0.218964 0
0 0.218964 0
0.115347 0.217009 0
0.218964 0.214076 0
0.316716 0.207234 0
0.370479 0.202346 0
0.430108 0.195503 0
0.496579 0.186706 0
0.569892 0.173021 0
0.652004 0.15347 0.0195503
0.745846 0.121212 0.030303
0.851417 0.0469208 0.0391007
1 0 0.083089
1 0 0.111437
0 0.301075 0
0 0.301075 0
0 0.301075 0
0 0.301075 0
0 0.300098 0
0 0.29912 0
0.189638 0.297165 0
0.29912 0.292278 0
0.355816 0.289345 0
0.4174 0.284457 0
0.485826 0.278592 0
0.561095 0.270772 0
0.645161 0.26002 0
0.73998 0.244379 0
0.84653 0.221896 0.0205279
1 0 0.0772239
1 0 0.108504
0 0.347019 0
0 0.347019 0
0 0.347019 0
0 0.347019 0
0 0.347019 0
0 0.346041 0
0.1652 0.343109 0
0.285435 0.340176 0
0.344086 0.337243 0
0.408602 0.333333 0
0.478006 0.328446 0
0.55523 0.322581 0
0.640274 0.313783 0
0.735093 0.301075 0
0.84262 0.284457 0
1 0 0.0723363
1 0 0.106549
0 0.398827 0
0 0.398827 0
0 0.398827 0
0 0.398827 0
0 0.397849 0
0 0.396872 0
0.12219 0.395894 0
0.264907 0.392962 0
0.329423 0.390029 0
0.395894 0.387097 0
0.468231 0.383187 0
0.546432 0.378299 0
0.633431 0.371457 0
0.729228 0.361681 0
0.837732 0.347996 0
1 0.164223 0.0645161
1 0 0.103617
0 0.456501 0
0 0.456501 0
0 0.456501 0
0 0.456501 0
0 0.456501 0
0 0.455523 0
0 0.454545 0
0.236559 0.451613 0
0.307918 0.449658 0
0.379277 0.447703 0
0.454545 0.44477 0
0.535679 0.439883 0
0.623656 0.434018 0
0.721408 0.426197 0
0.829912 0.414467 0
1 0.28348 0.0527859
1 0 0.0997067
0 0.522972 0
0 0.522972 0
0 0.522972 0
0 0.522972 0
0 0.521994 0
0 0.521994 0
0 0.521017 0
0.189638 0.519062 0
0.27566 0.517107 0
0.354839 0.515152 0
0.434995 0.512219 0
0.520039 0.508309 0
0.610948 0.503421 0
0.710655 0.496579 0
0.821114 0.486804 0
1 0.376344 0.030303
1 0 0.0948192
0 0.596285 0
0 0.596285 0
0 0.596285 0
0 0.596285 0
0 0.596285 0
0 0.596285 0
0 0.595308 0
0.0879765 0.593353 0
0.224829 0.591398 0
0.319648 0.589443 0
0.407625 0.587488 0
0.497556 0.584555 0
0.593353 0.579668 0
0.695992 0.573803 0
0.808407 0.56696 0
1 0.461388 0
1 0 0.0879765
0 0.679374 0
0 0.679374 0
0 0.679374 0
0 0.679374 0
0 0.679374 0
0 0.679374 0
0 0.678397 0
0 0.676442 0
0.121212 0.675464 0
0.26393 0.673509 0
0.368524 0.671554 0
0.467253 0.668622 0
0.568915 0.665689 0
0.675464 0.660802 0
0.791789 0.653959 0
1 0.5435 0
1 0.243402 0.0772239
0 0.774194 0
0 0.774194 0
0 0.774194 0
0 0.774194 0
0 0.774194 0
0 0.773216 0
0 0.772238 0
0 0.771261 0
0 0.770283 0
0.15347 0.769306 0
0.305963 0.767351 0
0.423265 0.764418 0
0.533724 0.761486 0
0.647116 0.757576 0
0.768328 0.751711 0
1 0.624633 0
1 0.374389 0.0615836
0 1 0
0 1 0
0 1 0
0 1 0
0 1 0
0 1 0
0 1 0
0 1 0
0 1 0
0 1 0
0 1 0
0 1 0
0 1 0
0.192571 1 0
0.396872 1 0
0.985337 0.963832 0
1 0.762463 0
0 1 0
0 1 0
0 1 0
0 1 0
0 1 0
0 1 0
0 1 0
0 1 0
0 1 0
0 1 0
0 1 0
0 1 0
0 1 0
0 1 0
0 1 0
0.488759 1 0
1 1 0
0 0 0.0224829
0.0273705 0 0.0254154
0.0615836 0 0.0244379
0.0918866 0 0.0215054
0.123167 0 0.0185728
0.160313 0 0.0185728
0.243402 0 0.0215054
0.332356 0 0.0254154
0.384164 0 0.0273705
0.441838 0 0.030303
0.506354 0 0.0342131
0.57869 0 0.0381232
0.659824 0 0.0420332
0.751711 0 0.0469208
0.856305 0 0.0537634
1 0 0.0899316
1 0 0.115347
0 0.026393 0.0254154
0.0254154 0.0254154 0.0254154
0.0576735 0.0195503 0.0234604
0.0899316 0 0.0205279
0.121212 0 0.0185728
0.160313 0 0.0185728
0.243402 0 0.0215054
0.332356 0 0.0254154
0.384164 0 0.0273705
0.441838 0 0.030303
0.506354 0 0.0332356
0.57869 0 0.0381232
0.659824 0 0.0420332
0.751711 0 0.0469208
0.856305 0 0.0537634
1 0 0.0899316
1 0 0.115347
0 0.0498534 0.0205279
0 0.0488759 0.0205279
0.0469208 0.0459433 0.0195503
0.0801564 0.0391007 0.0185728
0.116325 0.0254154 0.0166178
0.160313 0 0.0175953
0.243402 0 0.0205279
0.332356 0 0.0244379
0.384164 0 0.0273705
0.441838 0 0.030303
0.506354 0 0.0332356
0.57869 0 0.0371457
0.659824 0 0.0420332
0.750733 0 0.0469208
0.856305 0 0.0527859
1 0 0.0899316
1 0 0.11437
0 0.0703812 0.0146628
0 0.0694037 0.0146628
0.0254154 0.0684262 0.0136852
0.0654936 0.0635386 0.0136852
0.112414 0.0596285 0.0146628
0.158358 0.0537634 0.0156403
0.241447 0.0254154 0.0195503
0.331378 0 0.0234604
0.383187 0 0.026393
0.441838 0 0.0293255
0.506354 0 0.0322581
0.57869 0 0.0361681
0.658847 0 0.0410557
0.750733 0 0.0469208
0.855327 0 0.0527859
1 0 0.0889541
1 0 0.11437
0 0.105572 0
0 0.105572 0
0 0.105572 0
0.0478983 0.104594 0.00195503
0.104594 0.102639 0.0058651
0.15347 0.0997067 0.00879765
0.238514 0.0889541 0.0136852
0.329423 0.0684262 0.0195503
0.382209 0.0469208 0.0224829
0.439883 0 0.026393
0.504399 0 0.030303
0.577713 0 0.0342131
0.657869 0 0.0391007
0.749756 0 0.0449658
0.855327 0 0.0518084
1 0 0.0889541
1 0 0.11437
0 0.14565 0
0 0.14565 0
0 0.144673 0
0 0.144673 0
0.0909091 0.142717 0
0.143695 0.140762 0
0.233627 0.134897 0
0.326491 0.123167 0.0107527
0.379277 0.11437 0.0156403
0.43695 0.0997067 0.0205279
0.502444 0.0762463 0.0254154
0.575758 0 0.0312805
0.656892 0 0.0361681
0.748778 0 0.0420332
0.85435 0 0.0488759
1 0 0.0879765
1 0 0.113392
0 0.219941 0
0 0.219941 0
0 0.219941 0
0 0.218964 0
0 0.218964 0
0.11437 0.217009 0
0.218964 0.214076 0
0.316716 0.207234 0
0.370479 0.202346 0
0.430108 0.195503 0
0.496579 0.186706 0
0.569892 0.173021 0.0146628
0.652004 0.15347 0.0254154
0.745846 0.121212 0.0342131
0.851417 0.0469208 0.0420332
1 0 0.0840665
1 0 0.112414
0 0.301075 0
0 0.301075 0
0 0.301075 0
0 0.301075 0
0 0.300098 0
0 0.29912 0
0.189638 0.297165 0
0.29912 0.292278 0
0.355816 0.289345 0
0.4174 0.284457 0
0.485826 0.278592 0
0.561095 0.270772 0
0.645161 0.26002 0
0.73998 0.244379 0
0.84653 0.221896 0.0254154
1 0 0.0782014
1 0 0.109482
0 0.347019 0
0 0.347019 0
0 0.347019 0
0 0.347019 0
0 0.347019 0
0 0.346041 0
0.1652 0.343109 0
0.285435 0.340176 0
0.344086 0.337243 0
0.408602 0.333333 0
0.478006 0.328446 0
0.55523 0.322581 0
0.640274 0.313783 0
0.735093 0.301075 0
0.84262 0.284457 0
1 0 0.0733138
1 0 0.107527
0 0.398827 0
0 0.398827 0
0 0.398827 0
0 0.398827 0
0 0.397849 0
0 0.396872 0
0.12219 0.395894 0
0.264907 0.392962 0
0.329423 0.390029 0
0.395894 0.387097 0
0.468231 0.383187 0
0.546432 0.378299 0
0.633431 0.371457 0
0.729228 0.361681 0
0.837732 0.347996 0
1 0.164223 0.0664712
1 0 0.104594
0 0.456501 0
0 0.456501 0
0 0.456501 0
0 0.456501 0
0 0.456501 0
0 0.455523 0
0 0.454545 0
0.236559 0.451613 0
0.307918 0.449658 0
0.379277 0.447703 0
0.454545 0.44477 0
0.535679 0.439883 0
0.623656 0.434018 0
0.721408 0.426197 0
0.829912 0.414467 0
1 0.28348 0.054741
1 0 0.100684
0 0.522972 0
0 0.522972 0
0 0.522972 0
0 0.522972 0
0 0.521994 0
0 0.521994 0
0 0.521017 0
0.189638 0.519062 0
0.27566 0.517107 0
0.354839 0.515152 0
0.434995 0.512219 0
0.520039 0.508309 0
0.610948 0.503421 0
0.710655 0.496579 0
0.821114 0.486804 0
1 0.376344 0.0342131
1 0 0.0957967
0 0.596285 0
0 0.596285 0
0 0.596285 0
0 0.596285 0
0 0.596285 0
0 0.596285 0
0 0.595308 0
0.0879765 0.593353 0
0.224829 0.591398 0
0.319648 0.589443 0
0.407625 0.587488 0
0.497556 0.584555 0
0.593353 0.579668 0
0.695992 0.573803 0
0.808407 0.56696 0
1 0.461388 0
1 0 0.0879765
0 0.679374 0
0 0.679374 0
0 0.679374 0
0 0.679374 0
0 0.679374 0
0 0.679374 0
0 0.678397 0
0 0.676442 0
0.121212 0.675464 0
0.26393 0.673509 0
0.368524 0.671554 0
0.467253 0.668622 0
0.568915 0.665689 0
0.675464 0.660802 0
0.791789 0.653959 0
1 0.5435 0
1 0.243402 0.0782014
0 0.774194 0
0 0.774194 0
0 0.774194 0
0 0.774194 0
0 0.774194 0
0 0.773216 0
0 0.772238 0
0 0.771261 0
0 0.770283 0
0.15347 0.769306 0
0.305963 0.767351 0
0.423265 0.764418 0
0.533724 0.761486 0
0.647116 0.757576 0
0.768328 0.751711 0
1 0.624633 0
1 0.374389 0.0625611
0 1 0
0 1 0
0 1 0
0 1 0
0 1 0
0 1 0
0 1 0
0 1 0
0 1 0
0 1 0
0 1 0
0 1 0
0 1 0
0.192571 1 0
0.396872 1 0
0.985337 0.963832 0
1 0.762463 0
0 1 0
0 1 0
0 1 0
0 1 0
0 1 0
0 1 0
0 1 0
0 1 0
0 1 0
0 1 0
0 1 0
0 1 0
0 1 0
0 1 0
0 1 0
0.488759 1 0
1 1 0
0 0 0.0557185
0.0254154 0 0.056696
0.0596285 0 0.0537634
0.0909091 0 0.0459433
0.12219 0 0.0391007
0.160313 0 0.0371457
0.243402 0 0.0391007
0.332356 0 0.0410557
0.384164 0 0.0420332
0.441838 0 0.0439883
0.506354 0 0.0459433
0.57869 0 0.0488759
0.659824 0 0.0527859
0.751711 0 0.056696
0.856305 0 0.0615836
1 0 0.0948192
1 0 0.117302
0 0.026393 0.0576735
0.0215054 0.0244379 0.0557185
0.0557185 0.0185728 0.0508309
0.0879765 0 0.0459433
0.121212 0 0.0381232
0.160313 0 0.0371457
0.243402 0 0.0391007
0.332356 0 0.0410557
0.384164 0 0.0420332
0.441838 0 0.0439883
0.506354 0 0.0459433
0.57869 0 0.0488759
0.659824 0 0.0527859
0.751711 0 0.056696
0.856305 0 0.0615836
1 0 0.0938416
1 0 0.117302
0 0.0488759 0.0469208
0 0.0478983 0.0469208
0.0449658 0.0449658 0.0449658
0.0791789 0.0381232 0.0420332
0.115347 0.0254154 0.0371457
0.160313 0 0.0371457
0.242424 0 0.0381232
0.332356 0 0.0400782
0.384164 0 0.0420332
0.441838 0 0.0439883
0.506354 0 0.0459433
0.57869 0 0.0488759
0.659824 0 0.0518084
0.750733 0 0.056696
0.856305 0 0.0615836
1 0 0.0938416
1 0 0.117302
0 0.0694037 0.0381232
0 0.0694037 0.0381232
0.0234604 0.0674487 0.0371457
0.0645161 0.0635386 0.0361681
0.112414 0.0596285 0.0361681
0.158358 0.0537634 0.0361681
0.241447 0.0254154 0.0381232
0.331378 0 0.0400782
0.383187 0 0.0410557
0.44086 0 0.0430108
0.506354 0 0.0459433
0.57869 0 0.0478983
0.658847 0 0.0518084
0.750733 0 0.0557185
0.855327 0 0.0606061
1 0 0.0938416
1 0 0.116325
0 0.105572 0.0332356
0 0.105572 0.0332356
0 0.105572 0.0332356
0.0469208 0.104594 0.0332356
0.104594 0.102639 0.0342131
0.152493 0.0997067 0.0342131
0.238514 0.0889541 0.0361681
0.329423 0.0684262 0.0381232
0.381232 0.0469208 0.0391007
0.439883 0 0.0410557
0.504399 0 0.0439883
0.577713 0 0.0469208
0.657869 0 0.0508309
0.749756 0 0.054741
0.855327 0 0.0596285
1 0 0.0928641
1 0 0.116325
0 0.14565 0.0293255
0 0.14565 0.0293255
0 0.144673 0.0293255
0 0.144673 0.030303
0.0899316 0.142717 0.030303
0.143695 0.140762 0.030303
0.233627 0.134897 0.0322581
0.326491 0.123167 0.0351906
0.379277 0.11437 0.0361681
0.43695 0.0997067 0.0391007
0.502444 0.0762463 0.0410557
0.575758 0 0.0439883
0.656892 0 0.0478983
0.748778 0 0.0527859
0.85435 0 0.0576735
1 0 0.0918866
1 0 0.115347
0 0.219941 0.0117302
0 0.219941 0.0117302
0 0.219941 0.0117302
0 0.218964 0.0117302
0 0.218964 0.0136852
0.11437 0.217009 0.0146628
0.218964 0.214076 0.0175953
0.316716 0.207234 0.0224829
0.370479 0.202346 0.0254154
0.430108 0.195503 0.028348
0.496579 0.186706 0.0322581
0.569892 0.173021 0.0361681
0.652004 0.15347 0.0410557
0.745846 0.121212 0.0459433
0.851417 0.0469208 0.0527859
1 0 0.0889541
1 0 0.11437
0 0.301075 0
0 0.301075 0
0 0.301075 0
0 0.301075 0
0 0.300098 0
0 0.29912 0
0.189638 0.297165 0
0.29912 0.292278 0
0.355816 0.289345 0
0.4174 0.284457 0
0.485826 0.278592 0
0.561095 0.270772 0.00977517
0.645161 0.26002 0.0224829
0.73998 0.244379 0.0322581
0.84653 0.221896 0.0410557
1 0 0.0840665
1 0 0.111437
0 0.347019 0
0 0.347019 0
0 0.347019 0
0 0.347019 0
0 0.347019 0
0 0.346041 0
0.1652 0.343109 0
0.285435 0.340176 0
0.344086 0.337243 0
0.408602 0.333333 0
0.478006 0.328446 0
0.55523 0.322581 0
0.640274 0.313783 0
0.735093 0.301075 0.0107527
0.84262 0.284457 0.0293255
1 0 0.0791789
1 0 0.109482
0 0.398827 0
0 0.398827 0
0 0.398827 0
0 0.398827 0
0 0.397849 0
0 0.396872 0
0.12219 0.394917 0
0.264907 0.392962 0
0.329423 0.390029 0
0.395894 0.387097 0
0.468231 0.383187 0
0.546432 0.378299 0
0.633431 0.371457 0
0.729228 0.361681 0
0.837732 0.347996 0
1 0.164223 0.0723363
1 0 0.106549
0 0.456501 0
0 0.456501 0
0 0.456501 0
0 0.456501 0
0 0.456501 0
0 0.455523 0
0 0.454545 0
0.236559 0.451613 0
0.307918 0.449658 0
0.379277 0.447703 0
0.454545 0.44477 0
0.535679 0.439883 0
0.623656 0.434018 0
0.721408 0.426197 0
0.829912 0.414467 0
1 0.28348 0.0625611
1 0 0.102639
0 0.522972 0
0 0.522972 0
0 0.522972 0
0 0.522972 0
0 0.521994 0
0 0.521994 0
0 0.521017 0
0.189638 0.519062 0
0.27566 0.517107 0
0.354839 0.515152 0
0.434995 0.512219 0
0.520039 0.508309 0
0.610948 0.503421 0
0.710655 0.496579 0
0.821114 0.486804 0
1 0.376344 0.0449658
1 0 0.0977517
0 0.596285 0
0 0.596285 0
0 0.596285 0
0 0.596285 0
0 0.596285 0
0 0.596285 0
0 0.595308 0
0.086999 0.593353 0
0.224829 0.591398 0
0.319648 0.589443 0
0.407625 0.587488 0
0.497556 0.584555 0
0.593353 0.579668 0
0.695992 0.573803 0
0.808407 0.56696 0
1 0.461388 0
1 0 0.0909091
0 0.679374 0
0 0.679374 0
0 0.679374 0
0 0.679374 0
0 0.679374 0
0 0.679374 0
0 0.678397 0
0 0.676442 0
0.121212 0.675464 0
0.26393 0.673509 0
0.368524 0.671554 0
0.467253 0.668622 0
0.568915 0.665689 0
0.675464 0.660802 0
0.791789 0.653959 0
1 0.5435 0
1 0.243402 0.0811339
0 0.774194 0
0 0.774194 0
0 0.774194 0
0 0.774194 0
0 0.774194 0
0 0.773216 0
0 0.772238 0
0 0.771261 0
0 0.770283 0
0.15347 0.769306 0
0.305963 0.767351 0
0.423265 0.764418 0
0.533724 0.761486 0
0.647116 0.757576 0
0.768328 0.751711 0
1 0.624633 0
1 0.374389 0.0664712
0 1 0
0 1 0
0 1 0
0 1 0
0 1 0
0 1 0
0 1 0
0 1 0
0 1 0
0 1 0
0 1 0
0 1 0
0 1 0
0.191593 1 0
0.396872 1 0
0.985337 0.963832 0
1 0.762463 0
0 1 0
0 1 0
0 1 0
0 1 0
0 1 0
0 1 0
0 1 0
0 1 0
0 1 0
0 1 0
0 1 0
0 1 0
0 1 0
0 1 0
0 1 0
0.488759 1 0
1 1 0
0 0 0.0987292
0.0117302 0 0.0957967
0.0537634 0 0.0879765
0.086999 0 0.0782014
0.120235 0 0.0664712
0.160313 0 0.0645161
0.243402 0 0.0645161
0.332356 0 0.0654936
0.384164 0 0.0664712
0.441838 0 0.0674487
0.506354 0 0.0694037
0.57869 0 0.0713587
0.659824 0 0.0733138
0.750733 0 0.0762463
0.856305 0 0.0791789
1 0 0.106549
1 0 0.12219
0 0.0224829 0.0928641
0 0.0215054 0.0909091
0.0508309 0.0156403 0.085044
0.085044 0 0.0772239
0.119257 0 0.0654936
0.160313 0 0.0645161
0.243402 0 0.0645161
0.332356 0 0.0654936
0.384164 0 0.0664712
0.441838 0 0.0674487
0.506354 0 0.0694037
0.57869 0 0.0703812
0.659824 0 0.0733138
0.750733 0 0.0762463
0.856305 0 0.0791789
1 0 0.106549
